X:2
T:Bergeret sans roch, Reprise II
T:(Basse dansse 2)
C:Tielman Susato
S:Tileman Susato: Danserye (1551)
R:Basse dance
M:3/2
L:1/2
T: Altus
K:C -8va
ccc|c2c|cA/2_B/2G|G2z|GBA/2B/2|c2z|GBA/2B/2|c2z|
ccc|c2c|zA/2_B/2G|G>AB|c2c|cA_B|GG2|G2z|
ccc|B>cd|cd2|B2z|ddd|AcA|GA2|A2z|
ccc|B>cd|cd2|B2B|c2c|cA_B|GG2|G2z|]
